_app/_includes/svg/avoscloud.svg

<svg width="177" height="25" viewBox="0 0 177 25" xmlns="http://www.w3.org/2000/svg" xmlns:sketch="http://www.bohemiancoding.com/sketch/ns"><title>logo</title><path d="M11.402.382l-11.402 23.807h5.396l1.542-3.628h9.057l1.542 3.628h5.396l-11.403-23.807h-.128zm-2.923 16.391l2.987-7.002 2.987 7.002h-5.974zm26.562-15.977l-5.974 13.75-5.942-13.75h-5.396l11.273 23.744h.128l11.306-23.744h-5.395zm16.881-.414c-6.969 0-12.108 5.124-12.108 12.158 0 6.97 5.139 12.063 12.108 12.063 6.937 0 12.14-5.092 12.14-12.063 0-7.034-5.203-12.158-12.14-12.158zm0 19.797c-4.207 0-7.162-3.183-7.162-7.639 0-4.519 2.955-7.734 7.162-7.734s7.162 3.215 7.162 7.734c0 4.456-2.955 7.639-7.162 7.639zm23.206-10.153c-3.533-.668-4.432-1.337-4.432-2.673 0-1.719 1.285-2.546 3.372-2.546 2.505 0 4.304.891 5.749 2.037l2.537-4.01c-1.959-1.496-4.882-2.451-8.254-2.451-5.075 0-8.318 2.992-8.318 7.193 0 3.437 1.831 5.856 7.933 7.161 3.501.668 4.561 1.432 4.561 2.801 0 1.719-1.413 2.642-3.886 2.642-2.409 0-5.075-1.082-6.648-2.737l-2.666 4.042c2.345 2.005 5.556 3.119 9.153 3.119 5.556 0 8.929-3.024 8.929-7.511-.001-3.598-1.928-5.794-8.03-7.067zm29.13 10.153c-4.336 0-7.162-3.247-7.162-7.702 0-4.456 2.826-7.671 7.162-7.671 2.409 0 4.207 1.146 5.46 2.61l3.083-3.533c-2.28-2.323-4.818-3.501-8.543-3.501-7.098 0-12.108 5.188-12.108 12.095 0 6.938 5.01 12.126 12.108 12.126 3.437 0 6.231-1.018 8.575-3.565l-3.051-3.533c-1.252 1.496-3.083 2.674-5.524 2.674zm10.523 4.01h4.721v-24.189h-4.721v24.189zm15.966-16.455c-4.946 0-8.543 3.596-8.543 8.434 0 4.838 3.597 8.339 8.543 8.339s8.607-3.501 8.607-8.339c0-4.838-3.661-8.434-8.607-8.434zm0 12.7c-2.184 0-3.79-1.814-3.79-4.265 0-2.483 1.606-4.36 3.79-4.36 2.216 0 3.822 1.878 3.822 4.36-.001 2.45-1.606 4.265-3.822 4.265zm21.339-2.228c-.642.987-1.574 1.91-3.115 1.91-1.606 0-2.505-1.21-2.505-2.96v-9.104h-4.721v9.357c0 4.329 2.023 7.098 5.877 7.098 2.345 0 3.854-.891 4.721-2.069l.225 1.75h4.24v-16.136h-4.721v10.154h-.001zm19.261-18.206v9.516c-.771-.891-2.184-1.782-4.496-1.782-4.336 0-7.259 3.565-7.259 8.403 0 4.838 2.923 8.371 7.259 8.371 2.345 0 3.918-.955 4.753-2.101l.257 1.782h4.24v-24.189h-4.754zm0 18.428c-.707 1.146-1.702 2.005-3.34 2.005-2.152 0-3.661-1.655-3.661-4.297 0-2.674 1.51-4.329 3.661-4.329 1.638 0 2.634.891 3.34 2.037v4.584z" sketch:type="MSShapeGroup" fill="#3090E4"/></svg>

<?xml version="1.0" encoding="UTF-8" standalone="no"?>
<svg width="177px" height="25px" viewBox="0 0 177 25" version="1.1" xmlns="http://www.w3.org/2000/svg" xmlns:xlink="http://www.w3.org/1999/xlink" xmlns:sketch="http://www.bohemiancoding.com/sketch/ns">
    <!-- Generator: Sketch 3.0.1 (7597) - http://www.bohemiancoding.com/sketch -->
    <title>logo</title>
    <description>Created with Sketch.</description>
    <defs></defs>
    <g id="Page-1" stroke="none" stroke-width="1" fill="none" fill-rule="evenodd" sketch:type="MSPage">
        <g id="logo" sketch:type="MSLayerGroup" fill="#3090E4">
            <path d="M11.402,0.382 L0,24.189 L5.396,24.189 L6.938,20.561 L15.995,20.561 L17.537,24.189 L22.933,24.189 L11.53,0.382 L11.402,0.382 L11.402,0.382 Z M8.479,16.773 L11.466,9.771 L14.453,16.773 L8.479,16.773 L8.479,16.773 Z M35.041,0.796 L29.067,14.546 L23.125,0.796 L17.729,0.796 L29.002,24.54 L29.13,24.54 L40.436,0.796 L35.041,0.796 L35.041,0.796 Z M51.922,0.382 C44.953,0.382 39.814,5.506 39.814,12.54 C39.814,19.51 44.953,24.603 51.922,24.603 C58.859,24.603 64.062,19.511 64.062,12.54 C64.062,5.506 58.859,0.382 51.922,0.382 L51.922,0.382 Z M51.922,20.179 C47.715,20.179 44.76,16.996 44.76,12.54 C44.76,8.021 47.715,4.806 51.922,4.806 C56.129,4.806 59.084,8.021 59.084,12.54 C59.084,16.996 56.129,20.179 51.922,20.179 L51.922,20.179 Z M75.128,10.026 C71.595,9.358 70.696,8.689 70.696,7.353 C70.696,5.634 71.981,4.807 74.068,4.807 C76.573,4.807 78.372,5.698 79.817,6.844 L82.354,2.834 C80.395,1.338 77.472,0.383 74.1,0.383 C69.025,0.383 65.782,3.375 65.782,7.576 C65.782,11.013 67.613,13.432 73.715,14.737 C77.216,15.405 78.276,16.169 78.276,17.538 C78.276,19.257 76.863,20.18 74.39,20.18 C71.981,20.18 69.315,19.098 67.742,17.443 L65.076,21.485 C67.421,23.49 70.632,24.604 74.229,24.604 C79.785,24.604 83.158,21.58 83.158,17.093 C83.157,13.495 81.23,11.299 75.128,10.026 L75.128,10.026 Z M104.258,20.179 C99.922,20.179 97.096,16.932 97.096,12.477 C97.096,8.021 99.922,4.806 104.258,4.806 C106.667,4.806 108.465,5.952 109.718,7.416 L112.801,3.883 C110.521,1.56 107.983,0.382 104.258,0.382 C97.16,0.382 92.15,5.57 92.15,12.477 C92.15,19.415 97.16,24.603 104.258,24.603 C107.695,24.603 110.489,23.585 112.833,21.038 L109.782,17.505 C108.53,19.001 106.699,20.179 104.258,20.179 L104.258,20.179 Z M114.781,24.189 L119.502,24.189 L119.502,0 L114.781,0 L114.781,24.189 L114.781,24.189 Z M130.747,7.734 C125.801,7.734 122.204,11.33 122.204,16.168 C122.204,21.006 125.801,24.507 130.747,24.507 C135.693,24.507 139.354,21.006 139.354,16.168 C139.354,11.33 135.693,7.734 130.747,7.734 L130.747,7.734 Z M130.747,20.434 C128.563,20.434 126.957,18.62 126.957,16.169 C126.957,13.686 128.563,11.809 130.747,11.809 C132.963,11.809 134.569,13.687 134.569,16.169 C134.568,18.619 132.963,20.434 130.747,20.434 L130.747,20.434 Z M152.086,18.206 C151.444,19.193 150.512,20.116 148.971,20.116 C147.365,20.116 146.466,18.906 146.466,17.156 L146.466,8.052 L141.745,8.052 L141.745,17.409 C141.745,21.738 143.768,24.507 147.622,24.507 C149.967,24.507 151.476,23.616 152.343,22.438 L152.568,24.188 L156.808,24.188 L156.808,8.052 L152.087,8.052 L152.087,18.206 L152.086,18.206 Z M171.347,0 L171.347,9.516 C170.576,8.625 169.163,7.734 166.851,7.734 C162.515,7.734 159.592,11.299 159.592,16.137 C159.592,20.975 162.515,24.508 166.851,24.508 C169.196,24.508 170.769,23.553 171.604,22.407 L171.861,24.189 L176.101,24.189 L176.101,0 L171.347,0 L171.347,0 Z M171.347,18.428 C170.64,19.574 169.645,20.433 168.007,20.433 C165.855,20.433 164.346,18.778 164.346,16.136 C164.346,13.462 165.856,11.807 168.007,11.807 C169.645,11.807 170.641,12.698 171.347,13.844 L171.347,18.428 L171.347,18.428 Z" id="Shape" sketch:type="MSShapeGroup"></path>
        </g>
    </g>
</svg>
